BOEHME
CUT[NAMEN NENNEN DICH NICHT]
REG[Europa, Mitteleuropa, Deutschland]
KEY[B0379  08  F 6/8]
MEL[  3_3323  5_.40
    3  2_2254  430__
    3211-71  -6_.6_.
    53112-7  1_.0_. //] >>
FCT[Liebes - Lied, Liebes - Lust]
BOEHME
CUT[NAMEN NENNEN DICH NICHT]
REG[Europa, Mitteleuropa, Deutschland]
KEY[B0379  08  F 6/8]
MEL[  3_3323  5_.40
    3  2_2254  430__
    3211-71  -6_.6_.
    53112-7  1_.0_. //] >>
FCT[Liebes - Lied, Liebes - Lust]
